icons/npm-light.svg

<svg width="256" height="256" viewBox="0 0 256 256" fill="none" xmlns="http://www.w3.org/2000/svg">
<g clip-path="url(#clip0_33_578)">
<path d="M196 0H60C26.8629 0 0 26.8629 0 60V196C0 229.137 26.8629 256 60 256H196C229.137 256 256 229.137 256 196V60C256 26.8629 229.137 0 196 0Z" fill="#F4F2ED"/>
<g clip-path="url(#clip1_33_578)">
<path d="M23 88H233V156.571H128V168H81.3333V156.571H23V88ZM34.6667 145.143H58V110.857H69.6667V145.143H81.3333V99.4286H34.6667V145.143ZM93 99.4286V156.571H116.333V145.143H139.667V99.4286H93ZM116.333 110.857H128V133.714H116.333V110.857ZM151.333 99.4286V145.143H174.667V110.857H186.333V145.143H198V110.857H209.667V145.143H221.333V99.4286H151.333Z" fill="#CB3837"/>
<path d="M34.6667 145.143H58V110.857H69.6667V145.143H81.3334V99.4286H34.6667V145.143Z" fill="white"/>
<path d="M93 99.4286V156.571H116.333V145.143H139.667V99.4286H93ZM128 133.714H116.333V110.857H128V133.714Z" fill="white"/>
<path d="M151.333 99.4286V145.143H174.667V110.857H186.333V145.143H198V110.857H209.667V145.143H221.333V99.4286H151.333Z" fill="white"/>
</g>
</g>
<defs>
<clipPath id="clip0_33_578">
<rect width="256" height="256" fill="white"/>
</clipPath>
<clipPath id="clip1_33_578">
<rect width="210" height="80" fill="white" transform="translate(23 88)"/>
</clipPath>
</defs>
</svg>

<svg xmlns="http://www.w3.org/2000/svg" width="256" height="256" fill="none"><g clip-path="url(#clip0_33_578)"><path fill="#F4F2ED" d="M196 0H60C26.863 0 0 26.863 0 60v136c0 33.137 26.863 60 60 60h136c33.137 0 60-26.863 60-60V60c0-33.137-26.863-60-60-60"/><g clip-path="url(#clip1_33_578)"><path fill="#CB3837" d="M23 88h210v68.571H128V168H81.333v-11.429H23zm11.667 57.143H58v-34.286h11.667v34.286h11.666V99.429H34.667zM93 99.429v57.142h23.333v-11.428h23.334V99.429zm23.333 11.428H128v22.857h-11.667zm35-11.428v45.714h23.334v-34.286h11.666v34.286H198v-34.286h11.667v34.286h11.666V99.429z"/><path fill="#fff" d="M34.667 145.143H58v-34.286h11.667v34.286h11.666V99.429H34.667zM93 99.429v57.142h23.333v-11.428h23.334V99.429zm35 34.285h-11.667v-22.857H128zm23.333-34.285v45.714h23.334v-34.286h11.666v34.286H198v-34.286h11.667v34.286h11.666V99.429z"/></g></g><defs><clipPath id="clip0_33_578"><path fill="#fff" d="M0 0h256v256H0z"/></clipPath><clipPath id="clip1_33_578"><path fill="#fff" d="M23 88h210v80H23z"/></clipPath></defs></svg>
